X: 3
T: The Graf Spee
R: reel
M: 4/4
L: 1/8
K: Dmaj
|:~F2ED F~A3 | BAdA BAdA | ~F2ED F~A3 | BAdA FEE2 :|
|:fedc dBAF | Adfe dBA2 |1 f~B3 f~B3 | ABde fee2 :|2 faba fedB | BAdA FEE2 |
|:faaf abaf | fbba bc'ba |fafe dcde | faba fee2 :|
|:fAde fAdf | gbef gbeg | fAde fedB | ABde fee2 |
~f2 df A2 (3fed| fdec dBAF | ABde fedB | BAdA FEE2 :|


Tune 581	Setting 581

